source/img/icon-black-insta.svg

<svg width="18" height="18" viewBox="0 0 18 18" fill="none" xmlns="http://www.w3.org/2000/svg">
<path d="M13.1192 0.314209H5.3804C2.75235 0.314209 0.614258 2.45242 0.614258 5.0805V12.8193C0.614258 15.4475 2.75235 17.5856 5.3804 17.5856H13.1192C15.7474 17.5856 17.8855 15.4474 17.8855 12.8193V5.0805C17.8856 2.45242 15.7474 0.314209 13.1192 0.314209ZM16.3532 12.8193C16.3532 14.6026 14.9025 16.0532 13.1193 16.0532H5.3804C3.59731 16.0533 2.14665 14.6026 2.14665 12.8193V5.0805C2.14665 3.29739 3.59731 1.84661 5.3804 1.84661H13.1192C14.9024 1.84661 16.3531 3.29739 16.3531 5.0805L16.3532 12.8193Z" fill="#2D383F"/>
<path d="M9.24997 4.49964C6.79601 4.49964 4.79961 6.49606 4.79961 8.95006C4.79961 11.404 6.79601 13.4003 9.24997 13.4003C11.7039 13.4003 13.7003 11.404 13.7003 8.95006C13.7003 6.49606 11.7039 4.49964 9.24997 4.49964ZM9.24997 11.8678C7.64107 11.8678 6.332 10.5589 6.332 8.94996C6.332 7.34093 7.64097 6.03195 9.24997 6.03195C10.859 6.03195 12.1679 7.34093 12.1679 8.94996C12.1679 10.5589 10.8589 11.8678 9.24997 11.8678Z" fill="#2D383F"/>
<path d="M13.8869 3.20039C13.5917 3.20039 13.3016 3.31992 13.0931 3.52935C12.8836 3.73775 12.7631 4.02788 12.7631 4.32414C12.7631 4.61948 12.8837 4.90951 13.0931 5.11894C13.3015 5.32734 13.5917 5.44789 13.8869 5.44789C14.1832 5.44789 14.4723 5.32734 14.6818 5.11894C14.8912 4.90951 15.0107 4.61938 15.0107 4.32414C15.0107 4.02788 14.8912 3.73775 14.6818 3.52935C14.4733 3.31992 14.1832 3.20039 13.8869 3.20039Z" fill="#2D383F"/>
</svg>

<svg width="18" height="18" fill="none" xmlns="http://www.w3.org/2000/svg"><path d="M13.12.314H5.38A4.772 4.772 0 00.614 5.08v7.74a4.772 4.772 0 004.766 4.766h7.74a4.772 4.772 0 004.766-4.767V5.08A4.772 4.772 0 0013.119.314zm3.233 12.505a3.237 3.237 0 01-3.234 3.234H5.38a3.237 3.237 0 01-3.233-3.234V5.08A3.238 3.238 0 015.38 1.847h7.74a3.238 3.238 0 013.233 3.233v7.74z" fill="#2D383F"/><path d="M9.25 4.5A4.455 4.455 0 004.8 8.95a4.455 4.455 0 004.45 4.45 4.455 4.455 0 004.45-4.45A4.455 4.455 0 009.25 4.5zm0 7.368A2.921 2.921 0 016.332 8.95 2.921 2.921 0 019.25 6.032a2.921 2.921 0 012.918 2.918 2.921 2.921 0 01-2.918 2.918zM13.887 3.2a1.128 1.128 0 00-1.124 1.124c0 .295.12.586.33.795.209.208.499.329.794.329a1.126 1.126 0 001.124-1.124A1.129 1.129 0 0013.887 3.2z" fill="#2D383F"/></svg>
